icons/line/file-add.svg

<svg width="24" height="24" viewBox="0 0 24 24" fill="none" xmlns="http://www.w3.org/2000/svg">
<path d="M20 9V19C20 20.1046 19.1046 21 18 21L6 21C4.89543 21 4 20.1046 4 19L4 5C4 3.89543 4.89543 3 6 3H14M20 9V8.82843C20 8.29799 19.7893 7.78929 19.4142 7.41421L15.5858 3.58579C15.2107 3.21071 14.702 3 14.1716 3H14M20 9H16C14.8954 9 14 8.10457 14 7L14 3" stroke="currentColor" stroke-width="2" stroke-linecap="round" stroke-linejoin="round"/>
<path d="M12 12V15M12 18V15M12 15H15M12 15H9" stroke="currentColor" stroke-width="2" stroke-linecap="round" stroke-linejoin="round"/>
</svg>

<svg width="24" height="24" fill="none" xmlns="http://www.w3.org/2000/svg"><path d="M20 9v10a2 2 0 01-2 2H6a2 2 0 01-2-2V5a2 2 0 012-2h8m6 6v-.172a2 2 0 00-.586-1.414l-3.828-3.828A2 2 0 0014.172 3H14m6 6h-4a2 2 0 01-2-2V3M12 12v3m0 3v-3m0 0h3m-3 0H9" stroke="currentColor" stroke-width="2" stroke-linecap="round" stroke-linejoin="round"/></svg>
